X:1
T: A Fiddler's Reel
T: Mr. A.F. Macpherson's Reel
C:William Macpherson
R:Reel
Q: 232
K:A
M:4/4
L:1/8
|:E|A2 cA eA cA|eA cA dc Ae|A2 cA eA cA|dc Ae cA AE|
A2 cA eA cA|eA cA dc Ae|A2 cA eA cA|dc Ae cA Ae|
a2 Aa g2 Ag|f2 Af e2 ce|d2 Bd c2 Ac|BF BA GB eg|
a2 Aa g2 Ag|f2 Af e2 ce|dc Bc df eg|a2 A2 A2:|
